64x64/apps/appimagekit-odio.svg

<svg height="64" width="64" xmlns="http://www.w3.org/2000/svg"><rect height="56" opacity=".2" rx="28" width="56" x="4" y="5"/><rect fill="#e1569c" height="56" rx="28" width="56" x="4" y="4"/><path d="m31.479 18.978a1.5 1.5 0 0 0 -1.479 1.522v25a1.5 1.5 0 1 0 3 0v-25a1.5 1.5 0 0 0 -1.521-1.522zm-12 1a1.5 1.5 0 0 0 -1.479 1.522v23a1.5 1.5 0 1 0 3 0v-23a1.5 1.5 0 0 0 -1.521-1.522zm6 3a1.5 1.5 0 0 0 -1.479 1.522v17a1.5 1.5 0 1 0 3 0v-17a1.5 1.5 0 0 0 -1.521-1.522zm24 0a1.5 1.5 0 0 0 -1.479 1.522v17a1.5 1.5 0 1 0 3 0v-17a1.5 1.5 0 0 0 -1.521-1.522zm-12 2a1.5 1.5 0 0 0 -1.479 1.522v13a1.5 1.5 0 1 0 3 0v-13a1.5 1.5 0 0 0 -1.521-1.522zm-24 2a1.5 1.5 0 0 0 -1.479 1.522v9a1.5 1.5 0 1 0 3 0v-9a1.5 1.5 0 0 0 -1.521-1.522zm30 0a1.5 1.5 0 0 0 -1.479 1.522v9a1.5 1.5 0 1 0 3 0v-9a1.5 1.5 0 0 0 -1.521-1.522z" opacity=".2"/><path d="m13.5 27.5v9m6-16v23m6-20v17m6-21v25m6-19v13m6-11v9m6-13v17" fill="none" stroke="#fff" stroke-linecap="round" stroke-linejoin="round" stroke-width="3"/><path d="m32 4c-15.512 0-28 12.488-28 28 0 .168.01.333.014.5.266-15.279 12.642-27.5 27.986-27.5s27.72 12.221 27.986 27.5c.003-.167.014-.332.014-.5 0-15.512-12.488-28-28-28z" fill="#fff" opacity=".2"/></svg>

<svg xmlns="http://www.w3.org/2000/svg" width="64" height="64" version="1"><rect style="opacity:.2" width="56" height="56" x="4" y="5" rx="28" ry="28"/><rect style="fill:#e1569c" width="56" height="56" x="4" y="4" rx="28" ry="28"/><path style="opacity:.2" d="M31.479 18.978A1.5 1.5 0 0 0 30 20.5v25a1.5 1.5 0 1 0 3 0v-25a1.5 1.5 0 0 0-1.521-1.522zm-12 1A1.5 1.5 0 0 0 18 21.5v23a1.5 1.5 0 1 0 3 0v-23a1.5 1.5 0 0 0-1.521-1.522zm6 3A1.5 1.5 0 0 0 24 24.5v17a1.5 1.5 0 1 0 3 0v-17a1.5 1.5 0 0 0-1.521-1.522zm24 0A1.5 1.5 0 0 0 48 24.5v17a1.5 1.5 0 1 0 3 0v-17a1.5 1.5 0 0 0-1.521-1.522zm-12 2A1.5 1.5 0 0 0 36 26.5v13a1.5 1.5 0 1 0 3 0v-13a1.5 1.5 0 0 0-1.521-1.522zm-24 2A1.5 1.5 0 0 0 12 28.5v9a1.5 1.5 0 1 0 3 0v-9a1.5 1.5 0 0 0-1.521-1.522zm30 0A1.5 1.5 0 0 0 42 28.5v9a1.5 1.5 0 1 0 3 0v-9a1.5 1.5 0 0 0-1.521-1.522z"/><path style="fill:none;stroke:#fff;stroke-width:3;stroke-linecap:round;stroke-linejoin:round" d="M13.5 27.5v9M19.5 20.5v23M25.5 23.5v17M31.5 19.5v25M37.5 25.5v13M43.5 27.5v9M49.5 23.5v17"/><path style="fill:#fff;opacity:.2" d="M32 4C16.488 4 4 16.488 4 32c0 .168.01.333.014.5C4.28 17.221 16.656 5 32 5c15.344 0 27.72 12.221 27.986 27.5.003-.167.014-.332.014-.5C60 16.488 47.512 4 32 4z"/></svg>
